X: 2
T: Saddle the Pony
I: RJ J-8 G jig Set 43
I: Red Stocking, The J-8 G jig Set 43
M: 6/8
R: jig
K: G
(3D/E/F/ |\
"G"GBA G2B | "D"def "G"gdB | GBA G2B | "D"AFD AFD ||\
"G"GBA G2B | "D"def "G"gfg | "C"ecA "G"dBG | "D"FEF "G"G2 :|
|: (3A/B/c/ |\
"G"ded dcB | "D"def "G"gdB | ded dcB | "D"AFD AFD ||\
"G"ded dcB | def gfg | "C"ecA "G"dBG | "D"FEF "G"G2 :|


